X: 3198
T: Beekeeper, The
R: reel
M: 4/4
K: Gmajor
|:DG(3GGG ABcA|B2AB GE(3EEE|DGGF GABd|e2(3ggg edBA|
BGFG ABcA|B2AB GEEG|DEGF GABd|1 (3efg dB G2GE:|2 (3efg dBG2GA||
|:B2BA BcdB|cdec defd|gfgd efge|dBGB AGFE|
DG(3GGG ABcA|B2AB GEEG|DEGF GABd|1 (3efg dB G2GA:|2 (3efg dB G2GE||

